X:1
T:Title
%%score { 1 | ( 2 3 ) }
L:1/8
M:4/4
K:D
V:1 treble nm="Grand Piano"
V:2 bass 
V:3 bass 
V:1
 z4 z2[Q:1/4=100] [DF][EG] | [FA]2 [FA]2 [FA]2 [FA]2 | [FA]3 [GB] [FA]2 [Fd]2 | %3
 [Ec]3 [DB] [CA]2 [EG]2 | [DF]6 [DF][EG] | [FA]2 [FA]2 [FA]2 [FA]2 | [FA]3 [GB] [FA]2 [Fd]2 | %7
 c3 B A2 ^G2 | [CA]6 [CA]2 | [EG]3 [^DF] [EG]2 [CA]2 | [DF]3 G [DFA]2 .[DFA]2 | %11
 [^Gd]3 [Gd] [Ge]2 [Gd]2 | [Ac]6 [GA]2 | [Fd]3 [Fd] [Fd]2 [Ac][GB] | [FA]2 [Fd]2 z2 B2 | %15
 A3 F [CE]2 [EG]2 | [DF]6 [GA]2 | [Fd]3 [Fd] [Fd]2 [Ac][GB] | [FA]2 [Fd]2 z2 B2 | A2 d2 e3 [EGc] | %20
[M:3/4] [DFd]6 |] %21
V:2
 z4 z2 [D,A,][D,A,] | [D,D]2 [D,D]2 [D,D]2 [D,D]2 | [D,D]4 [D,D]2 [D,A,]2 | %3
 [A,,A,]3 [A,,A,] [A,,A,]2 [A,,A,]2 | [D,A,]6 [D,A,]2 | [D,D]2 [D,D]2 [D,D]2 [D,D]2 | %6
 [D,D]4 [D,D]2 [D,A,]2 | [E,A,E]3 [E,^G,D] [E,A,C]2 [E,B,D]2 | [A,,A,]6 [A,,A,]2 | %9
 [A,,A,]3 [A,,A,] [A,,A,]2 [A,,A,]2 | z2 z E D,2 z C | [E,B,]3 [E,B,] [E,B,]2 [E,E]2 | %12
 [A,E]6 [A,C]2 | [D,D]3 [D,D] [D,D]2 [D,D]2 | [D,D]2 [D,D]2 z2[K:treble] [G,DG]2 | %15
 [A,DF]3[K:bass] [A,D] [A,,A,]2 [A,,A,]2 | [D,A,]6 [A,C]2 | [D,D]3 [D,D] [D,D]2 [D,D]2 | %18
 [D,D]2 [D,D]2 z2[K:treble] [G,DG]2 | [A,DF]2 [A,DF]2 [A,CG]3[K:bass] A,, |[M:3/4] D,6 |] %21
V:3
 x8 | x8 | x8 | x8 | x8 | x8 | x8 | x8 | x8 | x8 | [D,A,]4 z2 D,2 | x8 | x8 | x8 | %14
 x6[K:treble] x2 | x3[K:bass] x5 | x8 | x8 | x6[K:treble] x2 | x7[K:bass] x |[M:3/4] x6 |] %21

